plugins/woocommerce-paypal-payments/modules/ppcp-wc-gateway/assets/images/visa.svg

<?xml version="1.0" encoding="UTF-8"?>
<svg width="80px" height="50px" viewBox="0 0 80 50" version="1.1" xmlns="http://www.w3.org/2000/svg" xmlns:xlink="http://www.w3.org/1999/xlink">
    <title>Visa_acceptancemark_80x50</title>
    <defs>
        <linearGradient x1="0%" y1="50.0001434%" x2="100%" y2="50.0001434%" id="linearGradient-1">
            <stop stop-color="#1D1C45" offset="0%"></stop>
            <stop stop-color="#174489" offset="100%"></stop>
        </linearGradient>
    </defs>
    <g id="Page-1" stroke="none" stroke-width="1" fill="none" fill-rule="evenodd">
        <g id="Visa_acceptancemark_80x50">
            <rect id="Rectangle" fill="#FFFFFF" fill-rule="nonzero" x="0.38" y="0.38" width="79.25" height="49.25"></rect>
            <path d="M79.25,0.75 L79.25,49.25 L0.75,49.25 L0.75,0.75 L79.25,0.75 M80,0 L0,0 L0,50 L80,50 L80,0 Z" id="Shape" fill="#BFBFBF" fill-rule="nonzero"></path>
            <g id="Visa" transform="translate(9.000000, 15.000000)" fill="url(#linearGradient-1)">
                <path d="M30.6983241,0.352571429 L26.5555185,19.6294286 L21.545,19.6294286 L25.6895278,0.352571429 L30.6983241,0.352571429 Z M51.7760278,12.7991429 L54.4133241,5.56114286 L55.931463,12.7991429 L51.7760278,12.7991429 Z M57.3663611,19.6294286 L62,19.6294286 L57.9553611,0.352571429 L53.6793704,0.352571429 C52.7175093,0.352571429 51.9066296,0.908857143 51.5466852,1.76628571 L44.0294722,19.6294286 L49.2888519,19.6294286 L50.3339537,16.7494286 L56.761,16.7494286 L57.3663611,19.6294286 Z M44.2898148,13.3351429 C44.3122037,8.248 37.2223889,7.96714286 37.2711852,5.694 C37.2866852,5.00285714 37.9480185,4.268 39.3961204,4.07971429 C40.1128519,3.98657143 42.0925463,3.91428571 44.3351667,4.942 L45.2155093,0.854571429 C44.0090926,0.418857143 42.4588056,0 40.5281944,0 C35.5768056,0 32.0910278,2.62057143 32.0631852,6.37171429 C32.0301759,9.14828571 34.5506481,10.6954286 36.4496852,11.6185714 C38.4006759,12.5631429 39.0551204,13.1691429 39.0479444,14.014 C39.0333056,15.308 37.4910556,15.8782857 36.0492685,15.9005714 C33.5305185,15.9397143 32.0686389,15.2228571 30.9038426,14.6825714 L29.9968056,18.9068571 C31.1661944,19.4417143 33.3270093,19.908 35.5679074,19.9308571 C40.8313056,19.9308571 44.2734537,17.344 44.2898148,13.3351429 L44.2898148,13.3351429 Z M23.5396204,0.352571429 L15.4225,19.6294286 L10.1269537,19.6294286 L6.1325463,4.24514286 C5.89,3.298 5.67960185,2.95028571 4.9422037,2.552 C3.73808333,1.90085714 1.74949074,1.29057143 0,0.911428571 L0.117972222,0.352571429 L8.64325926,0.352571429 C9.72912037,0.352571429 10.7067685,1.07171429 10.9533333,2.31771429 L13.0630556,13.4728571 L18.2773704,0.352571429 L23.5396204,0.352571429 L23.5396204,0.352571429 Z" id="Fill-1"></path>
            </g>
        </g>
    </g>
</svg>

<svg xmlns="http://www.w3.org/2000/svg" width="80" height="50"><defs><linearGradient id="a" x1="0%" x2="100%" y1="50%" y2="50%"><stop offset="0%" stop-color="#1D1C45"/><stop offset="100%" stop-color="#174489"/></linearGradient></defs><g fill="none" fill-rule="evenodd"><path fill="#FFF" fill-rule="nonzero" d="M.38.38h79.25v49.25H.38z"/><path fill="#BFBFBF" fill-rule="nonzero" d="M79.25.75v48.5H.75V.75zM80 0H0v50h80z"/><path fill="url(#a)" d="m30.698.353-4.142 19.276h-5.011L25.69.353zm21.078 12.446 2.637-7.238 1.518 7.238zm5.59 6.83H62L57.955.353H53.68a2.28 2.28 0 0 0-2.132 1.413L44.029 19.63h5.26l1.045-2.88h6.427zM44.29 13.335c.022-5.087-7.068-5.368-7.019-7.641.016-.691.677-1.426 2.125-1.614.717-.093 2.697-.166 4.94.862l.88-4.087C44.009.419 42.459 0 40.528 0c-4.951 0-8.437 2.62-8.465 6.372-.033 2.776 2.488 4.323 4.387 5.247 1.95.944 2.605 1.55 2.598 2.395-.015 1.294-1.557 1.864-2.999 1.887-2.518.039-3.98-.678-5.145-1.218l-.907 4.224c1.17.535 3.33 1.001 5.57 1.024 5.264 0 8.706-2.587 8.723-6.596M23.54.353l-8.117 19.276h-5.296L6.133 4.245c-.243-.947-.453-1.295-1.19-1.693C3.737 1.901 1.748 1.291 0 .912l.118-.56h8.525c1.086 0 2.064.72 2.31 1.966l2.11 11.155L18.277.353z" transform="translate(9 15)"/></g></svg>
